X:1
T:MENUETT No. 1 mit TRIO
T:MENUETT in G MAJOR
T:für das Pianoforte
T:W. A. Mozart
T:Köch. Verz. No. 1e
C:W. A. Mozart
Z:Köch. Verz. No. 1
%%score { 1 | ( 2 3 ) }
L:1/8
Q:1/4=200
M:3/4
K:G
V:1 treble nm="Piano" snm="Pno."
V:2 bass 
V:3 bass 
V:1
!mf! (bg | B2) c2 d2 | (d2 c2) (af | A2) B2 c2 | (c2 B2) (bg | e2) (ge ^c2) | (e^cAG F2) | %7
 (3(BAG F2) E2 |[M:2/4] D4 ::[M:3/4] (dB | ^G2) =f2 e2 | (d2 c2) (cA | F2) e2 d2 | (c2 B2) (ec | %14
 A2) (cA F2) | (DFAc B2) | (3(ecA G2) F2 |[M:2/4] G4!fine! ||[K:C][M:3/4]"^Trio." (cG | %19
 E2) E2 (DE) | (E2 F2) (dB | F2) F2 (ED) | (D2 E2)!f! (e/d/c/B/ | A2) a2 (d/c/B/A/ | %24
 G2) g2 (d/B/A/G/ | e2 d2) ^F2 |[M:2/4] (A2 G2) ::[M:3/4] (ge | ^c)c!<(! c2 (de)!<)! | e2 f2 fd | %30
 B2 B2 cd | d2 e2!f! (a/g/f/e/ | d2) d'2 (g/f/e/d/ | c2) c'2 (g/e/d/c/ | a2 g2) B2 | %35
 (d2 c2)!D.C.! :| %36
V:2
 z2 | G,2 A,2 B,2 | (B,2 A,2) z2 | F,2 G,2 A,2 | (A,2 G,2) z2 | G,4 E,2 | ^C,2 A,,2 D,2 | %7
 G,2 A,2 A,,2 |[M:2/4] D,2 D,,2 ::[M:3/4] z2 | E,2 D2 C2 | (B,2 A,2) (A,F, | D,2) C2 B,2 | %13
 (A,2 G,2) z2 | C4 A,2 | F,2 D,2 G,2 | C2 D2 D,2 |[M:2/4] G,4 ||[K:C][M:3/4] C,E, | G,2 G,2 G,2 | %20
 G,4 G,2 | G,2 G,2 G,2 | G,4 (C/B,/A,/G,/ | ^F,4) (B,/A,/G,/F,/ | E,4) B,2 | C2 D2 D,2 | %26
[M:2/4] G,4 ::[M:3/4] (E,G, | A,2) A,2 A,2 | A,4 A,2 | G,2 G,2 G,2 | G,4 (F/E/D/C/ | %32
 B,4) (E/D/C/B,/ | A,4) E,2 | (F,2 G,2) G,,2 | C,4 :| %36
V:3
 x2 | x6 | x6 | x6 | x6 | x6 | x6 | x6 |[M:2/4] x4 ::[M:3/4] x2 | x6 | x6 | x6 | x6 | x6 | x6 | %16
 x6 |[M:2/4] x4 ||[K:C][M:3/4] x2 | C,2 C,2 (B,,C,) | (C,2 D,2) (B,,D, | B,,2) B,,2 B,,2 | C,4 x2 | %23
 x6 | x6 | x6 |[M:2/4] x4 ::[M:3/4] x2 | A,2 G,2 (F,E,) | (E,2 D,2) (D,F, | G,2) F,2 (E,D,) | %31
 (D,2 C,2) x2 | x6 | x6 | x6 | x4 :| %36

